symbols/web/pest_control_rodent/materialsymbolsrounded/pest_control_rodent_wght300gradN25fill1_40px.svg

<svg xmlns="http://www.w3.org/2000/svg" height="40" width="40"><path d="M20.083 34.25q-3.625 0-6.25-2.417-2.625-2.416-2.958-6.041-2.75-.542-4.542-2.688-1.791-2.146-1.791-4.937 0-3.167 2.25-5.334 2.25-2.166 5.416-2.166h4.5q.667 0 1.125-.479.459-.48.459-1.105 0-.666-.48-1.145-.479-.48-1.145-.48h-2.5q-.417 0-.75-.27-.334-.271-.334-.73 0-.416.334-.708.333-.292.75-.292h2.5q1.5 0 2.562 1.063 1.063 1.062 1.063 2.562 0 1.5-1.042 2.542-1.042 1.042-2.542 1.042h-4.5q-2.333 0-4 1.583-1.666 1.583-1.666 3.875 0 2 1.25 3.521t3.166 2.104q.459-3.417 3-5.708 2.542-2.292 5.959-2.292.833 0 1.666.146.834.146 1.584.396-1.917.833-3.084 2.5-1.166 1.666-1.166 3.708 0 1.167.312 2.25.313 1.083.979 1.917.167.208.375.271.209.062.417-.063.167-.125.167-.313 0-.187-.084-.395-.625-.75-.895-1.667-.271-.917-.271-1.917 0-2.458 1.729-4.125 1.729-1.666 4.146-1.666 2.375 0 4.062 1.666 1.688 1.667 1.729 4.042 0 .917-.25 1.75t-.791 1.542l4.125 4q.5.458.833 1.02.333.563.333 1.23 0 .958-.791 1.583-.792.625-1.834.625Zm8.542-3.583q.5 0 .875-.355.375-.354.375-.854t-.375-.875q-.375-.375-.875-.375t-.854.375q-.354.375-.354.875t.354.854q.354.355.854.355Z"/></svg>

<svg xmlns="http://www.w3.org/2000/svg" height="40" width="40"><path d="M20.083 34.25Q16.458 34.25 13.833 31.833Q11.208 29.417 10.875 25.792Q8.125 25.25 6.333 23.104Q4.542 20.958 4.542 18.167Q4.542 15 6.792 12.833Q9.042 10.667 12.208 10.667H16.708Q17.375 10.667 17.833 10.188Q18.292 9.708 18.292 9.083Q18.292 8.417 17.812 7.938Q17.333 7.458 16.667 7.458H14.167Q13.75 7.458 13.417 7.188Q13.083 6.917 13.083 6.458Q13.083 6.042 13.417 5.75Q13.75 5.458 14.167 5.458H16.667Q18.167 5.458 19.229 6.521Q20.292 7.583 20.292 9.083Q20.292 10.583 19.25 11.625Q18.208 12.667 16.708 12.667H12.208Q9.875 12.667 8.208 14.25Q6.542 15.833 6.542 18.125Q6.542 20.125 7.792 21.646Q9.042 23.167 10.958 23.75Q11.417 20.333 13.958 18.042Q16.5 15.75 19.917 15.75Q20.75 15.75 21.583 15.896Q22.417 16.042 23.167 16.292Q21.25 17.125 20.083 18.792Q18.917 20.458 18.917 22.5Q18.917 23.667 19.229 24.75Q19.542 25.833 20.208 26.667Q20.375 26.875 20.583 26.938Q20.792 27 21 26.875Q21.167 26.75 21.167 26.562Q21.167 26.375 21.083 26.167Q20.458 25.417 20.188 24.5Q19.917 23.583 19.917 22.583Q19.917 20.125 21.646 18.458Q23.375 16.792 25.792 16.792Q28.167 16.792 29.854 18.458Q31.542 20.125 31.583 22.5Q31.583 23.417 31.333 24.25Q31.083 25.083 30.542 25.792L34.667 29.792Q35.167 30.25 35.5 30.812Q35.833 31.375 35.833 32.042Q35.833 33 35.042 33.625Q34.25 34.25 33.208 34.25ZM28.625 30.667Q29.125 30.667 29.5 30.312Q29.875 29.958 29.875 29.458Q29.875 28.958 29.5 28.583Q29.125 28.208 28.625 28.208Q28.125 28.208 27.771 28.583Q27.417 28.958 27.417 29.458Q27.417 29.958 27.771 30.312Q28.125 30.667 28.625 30.667Z"/></svg>
